X:1
T: Miss Gordon of Rockwell's Reel
C:
R:Reel
Q: 232
K:D
M:4/4
L:1/8
|:a|e2 Ac1/2d1/2 eA cA|BG Bd gd gf|e2 Ac1/2d1/2 eA ce|ae fd ce af|
e2 Ac1/2d1/2 eA cA|BG Bd gd gf|ef df ea ^gb|ae fd cA A^g|
a^g ae ce a=g|fd gd BG dB|a^g ae ce ae|fa ^gb aA Ag|
a^g ae ce a=g|fd gd BG dB|cA dB ec fd|ea ^gb aA A:|
